public/nft/svgs/marketplaces/looksrare-grey.svg

<svg width="20" height="20" viewBox="0 0 20 20" fill="none" xmlns="http://www.w3.org/2000/svg">
<path fill-rule="evenodd" clip-rule="evenodd" d="M6.64864 2L1 7.65256L10.5 17.1487L20 7.65256L14.3514 2H6.64864ZM6.13513 5.59458C8.5352 3.18398 12.4648 3.18396 14.8649 5.59456L16.9189 7.64866L14.8649 9.70272C12.4648 12.1133 8.5352 12.1133 6.13513 9.70274L4.08109 7.64866L6.13513 5.59458ZM7.54702 7.64848C7.54702 9.27987 8.86966 10.6012 10.4997 10.6012C12.1298 10.6012 13.4524 9.27987 13.4524 7.64848C13.4524 6.01708 12.1298 4.69576 10.4997 4.69576C8.86966 4.69576 7.54702 6.01708 7.54702 7.64848ZM10.4997 8.93225C9.791 8.93225 9.21593 8.35778 9.21593 7.64848C9.21593 6.93917 9.791 6.3647 10.4997 6.3647C11.2084 6.3647 11.7835 6.93917 11.7835 7.64848C11.7835 8.35778 11.2084 8.93225 10.4997 8.93225Z" fill="#9B9B9B"/>
</svg>

<svg xmlns="http://www.w3.org/2000/svg" width="20" height="20" fill="none" xmlns:v="https://vecta.io/nano"><path fill-rule="evenodd" d="M6.649 2L1 7.653l9.5 9.496L20 7.653 14.351 2H6.649zm-.514 3.595c2.4-2.411 6.33-2.411 8.73 0l2.054 2.054-2.054 2.054c-2.4 2.411-6.33 2.411-8.73 0L4.081 7.649l2.054-2.054zm1.412 2.054c0 1.631 1.323 2.953 2.953 2.953s2.953-1.321 2.953-2.953S12.13 4.696 10.5 4.696 7.547 6.017 7.547 7.648zM10.5 8.932c-.709 0-1.284-.574-1.284-1.284s.575-1.284 1.284-1.284 1.284.574 1.284 1.284-.575 1.284-1.284 1.284z" fill="#9b9b9b"/></svg>
